X:6586
T:The Broken Window
R:jig
C:Otis Tomas
D:The Lighthouse, Cranford Publications
B:The Lighthouse Collection, ISBN 0-9691181-5-5
N:Contacts ...
N:..... Otis Tomas Stringed Instruments 1-902-929-2766
N:..... <http://www.capebretonet.com/Music/Otis_Tomas>
N:..... Otis <otis@cranfordpub.com>
Q:300
O:England
L:1/8
M:6/8
K:F
D|C3 A,B,C|DFA GAc|dfd cAF|GFG AFD|
C3 A,B,C|DFA GAc|dfd cAG|AFF F2:|
|:A|cFA cde|fdB c2 A|BAG Bdf|bag afd|
[1 c3 cde|fdB c2 A|BFD fdc|AFF F2:|
[2 fcc cBc|dcB c2 A|BFD fdc|AFF F2|]


